X: 292
T: 293. Was Gott tut, das ist wohlgetan
N: Derived from chor293.krn
C: Johann Sebastian Bach
%%abc-version 2.0
%%abcx-abcm2ps-target-version 5.9.1 (29 Sep 2008)
%%abc-creator hum2abc beta
%%abcx-conversion-date 2019/03/11 17:28:19
%%abc-edited-by Craig Stuart Sapp
%%humdrum-veritas 4016882051
%%humdrum-veritas-data 4063411143
%%
%%barnumbers 0
L: 1/4
M: C
%%staves [1 2 3 4]
V: 1 clef=treble
V: 2 clef=treble
V: 3 clef=treble-8
V: 4 clef=bass
K: G
[V:1] D [I:setbarnb 1]| 
[V:2] B, | 
[V:3] G | 
[V:4] G,, | 
[V:1] GABc | 
[V:2] DDDG | 
[V:3] BAGG/A/ | 
[V:4] G,F,G,E, | 
[V:1] d3/c/!fermata!Be | 
[V:2] GF!fermata!DC/B,/ | 
[V:3] BA!fermata!GG | 
[V:4] B,,D,!fermata!G,,C, | 
[V:1] dcBc | 
[V:2] A,EDE | 
[V:3] FG/A/ B/F/G | 
[V:4] D,E,/F,/G,C, | 
[V:1] A2!fermata!G :|]  
[V:2] D2!fermata!D :|]  
[V:3] GF!fermata!B :|]  
[V:4] D,2!fermata!G,, :|]  
[V:1] d [I:setbarnb 5]| 
[V:2] G | 
[V:3] B | 
[V:4] G, | 
[V:1] ee!fermata!AA | 
[V:2] GA/G/!fermata!FF | 
[V:3] c/B/A!fermata!dd | 
[V:4] C,^C,!fermata!D,=C, | 
[V:1] dd!fermata!GB | 
[V:2] G3/=F/!fermata!ED | 
[V:3] d/c/ B/d/!fermata!cB/G/ | 
[V:4] B,,B,,!fermata!C,G,, | 
[V:1] AG^FG | 
[V:2] ^CB,A,B, | 
[V:3] EDD/F/ E/D/ | 
[V:4] A,,B,,/^C,/D,G,, | 
[V:1] E2!fermata!Dd | 
[V:2] A,2!fermata!A,G, | 
[V:3] D^C!fermata!FD | 
[V:4] A,,2!fermata!D,,B,, | 
[V:1] cBAB | 
[V:2] G,/A,/ B,/C/DD | 
[V:3] ED/E/FG | 
[V:4] E,/F,/G,D,/=C,/ B,,/G,,/ | 
[V:1] A2!fermata!G |]  
[V:2] D2!fermata!D |]  
[V:3] GF!fermata!B |]  
[V:4] D,2!fermata!G,, |]  



